src/24/clipboard-24.svg

<?xml version="1.0" encoding="iso-8859-1"?>
<!-- Generator: Adobe Illustrator 19.1.0, SVG Export Plug-In . SVG Version: 6.00 Build 0)  -->
<!DOCTYPE svg PUBLIC "-//W3C//DTD SVG 1.1 Tiny//EN" "http://www.w3.org/Graphics/SVG/1.1/DTD/svg11-tiny.dtd">
<svg version="1.1" baseProfile="tiny" id="Layer_1" xmlns="http://www.w3.org/2000/svg" xmlns:xlink="http://www.w3.org/1999/xlink"
	 x="0px" y="0px" viewBox="0 0 24 24" xml:space="preserve">
<g>
	<path d="M20.5,24h-16C4.224,24,4,23.776,4,23.5v-20C4,3.224,4.224,3,4.5,3H8c0.276,0,0.5,0.224,0.5,0.5S8.276,4,8,4H5v19h15V4h-3
		c-0.276,0-0.5-0.224-0.5-0.5S16.724,3,17,3h3.5C20.776,3,21,3.224,21,3.5v20C21,23.776,20.776,24,20.5,24z"/>
	<path d="M16.5,7h-8C8.224,7,8,6.776,8,6.5v-4C8,2.224,8.224,2,8.5,2h1.521c0.176-2,1.445-2,2.479-2s2.303,0,2.479,2H16.5
		C16.776,2,17,2.224,17,2.5v4C17,6.776,16.776,7,16.5,7z M9,6h7V3h-1.5C14.224,3,14,2.776,14,2.5C14,1,13.592,1,12.5,1S11,1,11,2.5
		C11,2.776,10.776,3,10.5,3H9V6z"/>
	<path d="M18.5,21h-12C6.224,21,6,20.776,6,20.5v-15C6,5.224,6.224,5,6.5,5H8c0.276,0,0.5,0.224,0.5,0.5S8.276,6,8,6H7v14h11V6h-1
		c-0.276,0-0.5-0.224-0.5-0.5S16.724,5,17,5h1.5C18.776,5,19,5.224,19,5.5v15C19,20.776,18.776,21,18.5,21z"/>
</g>
</svg>

<svg baseProfile="tiny" xmlns="http://www.w3.org/2000/svg" viewBox="0 0 24 24"><path d="M20.5 24h-16a.5.5 0 0 1-.5-.5v-20a.5.5 0 0 1 .5-.5H8a.5.5 0 0 1 0 1H5v19h15V4h-3a.5.5 0 0 1 0-1h3.5a.5.5 0 0 1 .5.5v20a.5.5 0 0 1-.5.5z"/><path d="M16.5 7h-8a.5.5 0 0 1-.5-.5v-4a.5.5 0 0 1 .5-.5h1.521c.176-2 1.445-2 2.479-2s2.303 0 2.479 2H16.5a.5.5 0 0 1 .5.5v4a.5.5 0 0 1-.5.5zM9 6h7V3h-1.5a.5.5 0 0 1-.5-.5C14 1 13.592 1 12.5 1S11 1 11 2.5a.5.5 0 0 1-.5.5H9v3z"/><path d="M18.5 21h-12a.5.5 0 0 1-.5-.5v-15a.5.5 0 0 1 .5-.5H8a.5.5 0 0 1 0 1H7v14h11V6h-1a.5.5 0 0 1 0-1h1.5a.5.5 0 0 1 .5.5v15a.5.5 0 0 1-.5.5z"/></svg>
